BOEHME
CUT[STUDIO AUF EINER REIS]
REG[Europa, Mitteleuropa, Deutschland]
KEY[B0564  16  G 2/4]
MEL[  3_.21_-6_  -5_-6_-5__
    -5_4_2__  -5_3_1__
    3_.21_-6_  -5_-6_-5__
    -5_4_2_-7_  1__0__
    2_3_2_3_  -7_3_2__
    2_2_3_4#_  5_-5_-5__
    -5_-5_1_1_  3_3_5__
    4_-5_2__  3_-5_1__
    -5_-5_1_1_  3_3_5__
    4_-5_2_-5_  1__0__ //] >>
FCT[Studenten -, Wander - Lied]
